X: 12990
T: Fife Hunt, The
R: reel
M: 4/4
K: Dmajor
|:ag|f~d3 A~F3|Eee^d ~e3g|f~d3 AGFE|Ddce d2:|
dg|fdad bdad|Bee^d ~e3g|fdad bdad|Adce ~d3g|
fdad bdad|Bee^d ~e3g|(3fga ba gfed|Adce df|

